src/assets/filled/UserSearch.svg

<svg width="24" height="24" viewBox="0 0 24 24"  xmlns="http://www.w3.org/2000/svg">
<path d="M11.9999 14C6.98991 14 2.90991 17.36 2.90991 21.5C2.90991 21.78 3.12991 22 3.40991 22H20.5899C20.8699 22 21.0899 21.78 21.0899 21.5C21.0899 17.36 17.0099 14 11.9999 14Z" />
<path d="M16.72 10.35L15.76 9.39C16.26 8.64 16.55 7.74 16.55 6.77C16.55 4.13 14.41 2 11.78 2C9.15 2 7 4.14 7 6.77C7 9.4 9.14 11.54 11.77 11.54C12.74 11.54 13.64 11.25 14.39 10.75L15.35 11.71C15.54 11.9 15.79 11.99 16.03 11.99C16.28 11.99 16.53 11.9 16.71 11.71C17.09 11.34 17.09 10.73 16.72 10.35Z" />
</svg>

<?xml version="1.0" encoding="UTF-8"?>
<svg width="24" height="24" viewBox="0 0 24 24" xmlns="http://www.w3.org/2000/svg">
 <path d="m12 14c-5.01 0-9.09 3.36-9.09 7.5 0 0.28 0.22 0.5 0.5 0.5h17.18c0.28 0 0.5-0.22 0.5-0.5 0-4.14-4.08-7.5-9.09-7.5z"/>
 <path d="m16.72 10.35-0.96-0.96c0.5-0.75 0.79-1.65 0.79-2.62 0-2.64-2.14-4.77-4.77-4.77s-4.78 2.14-4.78 4.77 2.14 4.77 4.77 4.77c0.97 0 1.87-0.29 2.62-0.79l0.96 0.96c0.19 0.19 0.44 0.28 0.68 0.28 0.25 0 0.5-0.09 0.68-0.28 0.38-0.37 0.38-0.98 0.01-1.36z"/>
</svg>
